images/companyLogos/FinOptimal.svg

<svg width="171" height="25" viewBox="0 0 171 25" fill="none" xmlns="http://www.w3.org/2000/svg">
<path d="M30.8531 19.8891H34.4636V12.563H40.1344L41.0155 9.78775H34.4619V4.84888C38.3368 3.75098 43.6721 4.84888 43.6721 4.84888V1.35694C39.7905 0.509794 35.1227 0.726664 30.8531 1.6077V19.8891Z" fill="white"/>
<path d="M49.2023 6.13647H45.5917V19.8891H49.2023V6.13647Z" fill="white"/>
<path d="M60.8895 5.86523C58.8022 5.86523 57.1079 6.94619 56.198 9.13183V6.13632L52.6366 6.50398V19.8889H56.2217V12.9389C56.2217 10.4093 57.3027 8.86244 59.2918 8.86244C61.3792 8.86244 62.2636 10.1399 62.2636 12.3256V19.8889H65.8487V11.3175C65.8487 9.67231 65.4065 8.3711 64.4984 7.36299C63.5902 6.35658 62.3873 5.86523 60.8895 5.86523Z" fill="white"/>
<path d="M98.7451 5.98901C96.5832 5.98901 94.8889 6.9717 93.9808 8.96081V6.13642H90.4194V24.1959L94.0045 23.8401V17.212C94.8144 18.9809 96.2884 20.0364 98.4503 20.0364C101.717 20.0364 104.394 17.5322 104.394 12.9136C104.394 8.17465 101.815 5.98901 98.7451 5.98901ZM97.2474 17.1137C94.6941 17.1137 93.7605 15.4686 93.7605 13.0119C93.7605 10.5806 94.8161 8.83712 97.2474 8.83712C99.7278 8.83712 100.734 10.5568 100.734 13.0119C100.734 15.4432 99.7278 17.1137 97.2474 17.1137Z" fill="white"/>
<path d="M113.901 8.45423L114.173 5.50786C112.515 5.496 110.392 5.96701 110.392 5.96701V0.782471L107.076 1.10608L107.027 15.3449C107.027 18.4641 108.328 20.133 111.473 20.133C112.626 20.133 113.413 19.9127 114.173 19.4943V16.6461C113.486 16.941 113.069 17.0884 112.355 17.0884C111.078 17.0884 110.39 16.4259 110.39 14.9264V8.91169C110.392 8.91339 111.83 8.47457 113.901 8.45423Z" fill="white"/>
<path d="M167.218 0.782471L163.903 1.10608L163.853 15.3449C163.853 18.4641 165.155 20.133 168.299 20.133C169.453 20.133 170.239 19.9127 171 19.4943V16.6461C170.312 16.941 169.895 17.0884 169.182 17.0884C167.905 17.0884 167.217 16.4259 167.217 14.9264V0.782471H167.218Z" fill="white"/>
<path d="M120.559 6.13647H116.949V19.8891H120.559V6.13647Z" fill="white"/>
<path d="M140.942 5.86523C138.878 5.86523 137.258 6.96991 136.348 9.03356C135.735 7.06818 134.212 5.86523 132.05 5.86523C129.986 5.86523 128.538 6.89706 127.679 9.05728V6.13632L124.117 6.50907V19.8889H127.702V12.9389C127.702 10.4093 128.488 8.86244 130.452 8.86244C132.49 8.86244 133.08 10.1399 133.08 12.3256V19.8889H136.665V12.9389C136.665 10.4093 137.451 8.86244 139.415 8.86244C141.453 8.86244 142.043 10.1399 142.043 12.3256V19.8889H145.628V11.3175C145.633 8.05087 143.89 5.86523 140.942 5.86523Z" fill="white"/>
<path d="M161.031 11.0464C161.031 7.53411 158.747 5.86523 155.333 5.86523C152.288 5.86523 149.709 7.26472 148.554 10.2856L151.795 11.2192C152.287 9.6469 153.391 8.6659 155.16 8.6659C156.929 8.6659 157.615 9.37751 157.615 10.2619C157.615 10.6787 157.444 10.9989 157.1 11.2683C156.781 11.514 156.044 11.7597 154.914 11.9799C152.263 12.495 150.911 12.9135 149.93 13.5268C148.923 14.1893 148.235 15.0991 148.235 16.6697C148.235 18.8317 149.93 20.1329 152.583 20.1329C154.847 20.1329 156.815 18.9825 157.715 17.1221V19.9973H161.038C161.039 19.9973 161.043 19.9973 161.044 19.9973C161.044 17.9794 161.031 11.0464 161.031 11.0464ZM153.982 17.5067C152.583 17.5067 151.846 17.0408 151.846 16.0327C151.846 14.8535 152.803 14.4367 155.185 13.9199C156.634 13.6014 157.396 13.3303 157.715 12.9372V13.7725C157.715 15.272 156.463 17.5067 153.982 17.5067Z" fill="white"/>
<path d="M47.3911 4.43035H47.4063C48.5076 4.43035 49.3988 3.53746 49.3988 2.43786C49.3988 1.33149 48.4975 0.436901 47.3911 0.445372H47.3758C46.2813 0.453844 45.3986 1.34335 45.3986 2.43786C45.3986 3.53746 46.2898 4.43035 47.3911 4.43035Z" fill="white"/>
<path d="M118.721 4.43035H118.736C119.837 4.43035 120.729 3.53746 120.729 2.43786C120.729 1.33149 119.827 0.436901 118.721 0.445372H118.706C117.611 0.453844 116.728 1.34335 116.728 2.43786C116.728 3.53746 117.62 4.43035 118.721 4.43035Z" fill="white"/>
<path d="M78.1358 0.787598C72.8597 0.787598 68.5681 5.07924 68.5681 10.3553C68.5681 15.6313 72.8597 19.923 78.1358 19.923C83.4118 19.923 87.7034 15.6313 87.7034 10.3553C87.7034 5.07924 83.4118 0.787598 78.1358 0.787598ZM78.1358 16.5056C74.7438 16.5056 71.9855 13.7456 71.9855 10.3553C71.9855 6.96499 74.7455 4.20499 78.1358 4.20499C81.5277 4.20499 84.286 6.96499 84.286 10.3553C84.286 13.7456 81.526 16.5056 78.1358 16.5056Z" fill="white"/>
<path d="M4.66778 15.6737V4.28124C9.63545 4.28124 12.2955 1.40771 15.5079 1.40771V5.15888C12.4463 5.31137 10.8909 7.08021 8.23088 7.28014V8.77959C11.1925 8.77959 12.5462 6.9057 15.5079 6.75999V10.2113C13.4002 10.2113 11.1925 12.2309 8.18175 12.2309L8.23257 15.0722C8.23257 15.0722 13.3019 14.4707 17.7681 18.0338L15.6095 20.8938C15.6095 20.8938 9.53718 15.7245 2.16022 20.8938L0 18.0321C0 18.0321 2.05687 16.326 4.66778 15.6737Z" fill="white"/>
</svg>

<svg fill="none" xmlns="http://www.w3.org/2000/svg" viewBox="0 0 171 25">
  <path
    d="M30.853 19.89h3.61v-7.327h5.671l.882-2.775h-6.554v-4.94c3.875-1.097 9.21 0 9.21 0V1.358c-3.881-.847-8.55-.63-12.819.25V19.89ZM49.202 6.136h-3.61V19.89h3.61V6.136ZM60.89 5.865c-2.088 0-3.782 1.081-4.692 3.267V6.136l-3.561.368v13.385h3.585v-6.95c0-2.53 1.08-4.077 3.07-4.077 2.087 0 2.972 1.278 2.972 3.464v7.563h3.585v-8.571c0-1.646-.443-2.947-1.35-3.955-.909-1.006-2.112-1.498-3.61-1.498ZM98.745 5.989c-2.162 0-3.856.983-4.764 2.972V6.136h-3.562v18.06l3.585-.356v-6.628c.81 1.769 2.284 2.824 4.446 2.824 3.267 0 5.944-2.504 5.944-7.122 0-4.74-2.579-6.925-5.649-6.925Zm-1.498 11.125c-2.553 0-3.487-1.645-3.487-4.102 0-2.431 1.056-4.175 3.487-4.175 2.48 0 3.487 1.72 3.487 4.175 0 2.431-1.006 4.102-3.487 4.102ZM113.901 8.454l.272-2.946c-1.658-.012-3.781.459-3.781.459V.782l-3.316.324-.049 14.239c0 3.12 1.301 4.788 4.446 4.788 1.153 0 1.94-.22 2.7-.639v-2.848c-.687.295-1.104.442-1.818.442-1.277 0-1.965-.662-1.965-2.162V8.912c.002.001 1.44-.437 3.511-.458ZM167.218.782l-3.315.324-.05 14.239c0 3.12 1.302 4.788 4.446 4.788 1.154 0 1.94-.22 2.701-.639v-2.848c-.688.295-1.105.442-1.818.442-1.277 0-1.965-.662-1.965-2.162V.782h.001ZM120.559 6.136h-3.61V19.89h3.61V6.136ZM140.942 5.865c-2.064 0-3.684 1.105-4.594 3.169-.613-1.966-2.136-3.169-4.298-3.169-2.064 0-3.512 1.032-4.371 3.192v-2.92l-3.562.372v13.38h3.585v-6.95c0-2.53.786-4.077 2.75-4.077 2.038 0 2.628 1.278 2.628 3.464v7.563h3.585v-6.95c0-2.53.786-4.077 2.75-4.077 2.038 0 2.628 1.278 2.628 3.464v7.563h3.585v-8.571c.005-3.267-1.738-5.453-4.686-5.453ZM161.031 11.046c0-3.512-2.284-5.18-5.698-5.18-3.045 0-5.624 1.399-6.779 4.42l3.241.933c.492-1.572 1.596-2.553 3.365-2.553 1.769 0 2.455.712 2.455 1.596 0 .417-.171.737-.515 1.006-.319.246-1.056.492-2.186.712-2.651.515-4.003.934-4.984 1.547-1.007.662-1.695 1.572-1.695 3.143 0 2.162 1.695 3.463 4.348 3.463 2.264 0 4.232-1.15 5.132-3.01v2.874H161.044c0-2.018-.013-8.95-.013-8.95Zm-7.049 6.46c-1.399 0-2.136-.465-2.136-1.473 0-1.18.957-1.596 3.339-2.113 1.449-.319 2.211-.59 2.53-.983v.836c0 1.499-1.252 3.734-3.733 3.734ZM47.391 4.43h.015a1.992 1.992 0 1 0-.015-3.985h-.015a1.993 1.993 0 0 0 .015 3.985ZM118.721 4.43h.015a1.993 1.993 0 1 0-.015-3.985h-.015a1.993 1.993 0 0 0 .015 3.985ZM78.136.788c-5.276 0-9.568 4.291-9.568 9.567s4.292 9.568 9.568 9.568 9.567-4.292 9.567-9.568S83.412.788 78.136.788Zm0 15.718a6.157 6.157 0 0 1-6.15-6.15c0-3.391 2.76-6.151 6.15-6.151 3.392 0 6.15 2.76 6.15 6.15 0 3.39-2.76 6.15-6.15 6.15ZM4.668 15.674V4.28c4.967 0 7.628-2.873 10.84-2.873v3.75C12.446 5.312 10.89 7.08 8.23 7.28v1.5c2.962 0 4.315-1.874 7.277-2.02v3.451c-2.108 0-4.315 2.02-7.326 2.02l.05 2.841s5.07-.601 9.536 2.962l-2.159 2.86s-6.072-5.17-13.449 0L0 18.032s2.057-1.706 4.668-2.358Z"
    fill="#fff"
  />
</svg>
